img/icons/error-icons.svg

<svg fill="none" height="24" viewBox="0 0 24 24" width="24" xmlns="http://www.w3.org/2000/svg"><g stroke="#4a635c" stroke-linecap="round" stroke-linejoin="round" stroke-width="2"><path d="m21.8011 9.99999c.4567 2.24131.1312 4.57141-.9221 6.60181-1.0534 2.0304-2.771 3.6382-4.8664 4.5555s-4.4419 1.0885-6.6482.4851c-2.20633-.6035-4.13911-1.945-5.47602-3.801-1.33692-1.856-1.99716-4.1142-1.87062-6.398.12655-2.28388 1.03222-4.45532 2.56599-6.15224s3.60293-2.81674 5.86245-3.17272c2.2594-.35597 4.5727.07341 6.5539 1.21655"/><path d="m9 11 3 3 10-10"/></g></svg>

<svg width="24" height="24" viewBox="0 0 24 24" fill="none" xmlns="http://www.w3.org/2000/svg">
<path d="M21.8011 9.99999C22.2578 12.2413 21.9323 14.5714 20.879 16.6018C19.8256 18.6322 18.108 20.24 16.0126 21.1573C13.9172 22.0746 11.5707 22.2458 9.3644 21.6424C7.15807 21.0389 5.22529 19.6974 3.88838 17.8414C2.55146 15.9854 1.89122 13.7272 2.01776 11.4434C2.14431 9.15952 3.04998 6.98808 4.58375 5.29116C6.11752 3.59424 8.18668 2.47442 10.4462 2.11844C12.7056 1.76247 15.0189 2.19185 17.0001 3.33499" stroke="#4A635C" stroke-width="2" stroke-linecap="round" stroke-linejoin="round"/>
<path d="M9 11L12 14L22 4" stroke="#4A635C" stroke-width="2" stroke-linecap="round" stroke-linejoin="round"/>
</svg>
